assets/icons/18px/outline/widgets-18px.svg

<svg fill="none" height="18" width="18" xmlns="http://www.w3.org/2000/svg" xmlns:xlink="http://www.w3.org/1999/xlink"><clipPath id="a"><path d="m0 0h18v18h-18z"/></clipPath><g clip-path="url(#a)"><path d="m2.5 12c0-.943 0-1.414.293-1.707s.764-.293 1.707-.293h1.5c.943 0 1.414 0 1.707.293s.293.764.293 1.707v1.5c0 .943 0 1.414-.293 1.707s-.764.293-1.707.293h-1.5c-.943 0-1.414 0-1.707-.293s-.293-.764-.293-1.707zm0-7.5c0-.943 0-1.414.293-1.707s.764-.293 1.707-.293h9c.943 0 1.414 0 1.707.293s.293.764.293 1.707v1c0 .943 0 1.414-.293 1.707s-.764.293-1.707.293h-9c-.943 0-1.414 0-1.707-.293s-.293-.764-.293-1.707zm7.5 7.5c0-.943 0-1.414.293-1.707s.764-.293 1.707-.293h1.5c.943 0 1.414 0 1.707.293s.293.764.293 1.707v1.5c0 .943 0 1.414-.293 1.707s-.764.293-1.707.293h-1.5c-.943 0-1.414 0-1.707-.293s-.293-.764-.293-1.707z" stroke="#fff" stroke-linecap="round" stroke-linejoin="round"/></g></svg>

<svg fill="none" height="18" width="18" xmlns="http://www.w3.org/2000/svg"><clipPath id="a"><path d="M0 0h18v18H0z"/></clipPath><g clip-path="url(#a)"><path d="M2.5 12c0-.943 0-1.414.293-1.707S3.557 10 4.5 10H6c.943 0 1.414 0 1.707.293S8 11.057 8 12v1.5c0 .943 0 1.414-.293 1.707S6.943 15.5 6 15.5H4.5c-.943 0-1.414 0-1.707-.293S2.5 14.443 2.5 13.5zm0-7.5c0-.943 0-1.414.293-1.707S3.557 2.5 4.5 2.5h9c.943 0 1.414 0 1.707.293s.293.764.293 1.707v1c0 .943 0 1.414-.293 1.707s-.764.293-1.707.293h-9c-.943 0-1.414 0-1.707-.293S2.5 6.443 2.5 5.5zM10 12c0-.943 0-1.414.293-1.707S11.057 10 12 10h1.5c.943 0 1.414 0 1.707.293s.293.764.293 1.707v1.5c0 .943 0 1.414-.293 1.707s-.764.293-1.707.293H12c-.943 0-1.414 0-1.707-.293S10 14.443 10 13.5z" stroke="currentColor" stroke-linecap="round" stroke-linejoin="round"/></g></svg>
